icon/lg/influxdb.svg

<?xml version="1.0" encoding="UTF-8"?>
<svg viewBox="0 0 512 103" version="1.1" xmlns="http://www.w3.org/2000/svg" preserveAspectRatio="xMidYMid" height="1em" width="1em">
  <g>
    <path d="M150.245064,28.8103918 C147.632257,28.8103918 145.494506,27.8602804 143.594284,26.1975853 C141.931589,24.5348903 140.981477,22.3971395 140.981477,20.0218609 C140.981477,17.4090544 141.931589,15.5088315 143.594284,13.8461364 C145.494506,12.1834414 147.632257,11.2333299 150.245064,11.2333299 C152.85787,11.2333299 154.995621,12.1834414 156.658316,13.8461364 C158.321011,15.5088315 159.271123,17.4090544 159.271123,20.0218609 C159.271123,22.3971395 158.321011,24.5348903 156.658316,26.1975853 C154.758093,27.8602804 152.620342,28.8103918 150.245064,28.8103918 Z M141.931589,82.2541612 L141.931589,35.9362278 L158.083483,35.9362278 L158.083483,82.2541612 L141.931589,82.2541612 Z M169.247293,82.2541612 L169.247293,35.9362278 L185.16166,35.9362278 L185.399188,41.6368965 C186.586827,39.2616178 188.249522,37.5989228 190.624801,36.4112835 C193.000079,35.2236442 195.612886,34.5110606 198.700748,34.5110606 C203.926361,34.5110606 207.964335,36.1737556 210.577141,39.4991457 C213.427475,42.8245358 214.615115,47.5750931 214.615115,53.9883454 L214.615115,82.2541612 L198.46322,82.2541612 L198.46322,57.0762076 C198.46322,51.6130667 196.325469,49.0002602 192.287496,49.0002602 C190.149745,49.0002602 188.48705,49.7128438 187.061883,51.3755389 C185.874243,52.8007061 185.399188,54.9384568 185.399188,57.7887912 L185.399188,82.2541612 L169.247293,82.2541612 Z M230.054426,82.2541612 L230.054426,49.0002602 L222.691062,49.0002602 L222.691062,35.9362278 L230.054426,35.9362278 L230.054426,31.4231983 C230.054426,24.2973624 231.717121,18.8342216 235.280039,15.0337758 C238.842957,11.2333299 243.831042,9.09557917 250.244294,9.09557917 C252.144517,9.09557917 253.807212,9.33310703 255.469907,9.57063489 C257.132602,9.80816276 258.55777,10.2832185 259.745409,10.7582742 L258.55777,24.0598346 C257.845186,23.8223067 257.132602,23.5847788 256.182491,23.347251 C255.232379,23.1097231 254.519796,23.1097231 253.569684,23.1097231 C250.956878,23.1097231 249.056655,23.8223067 247.869016,25.2474739 C246.681376,26.6726411 245.968793,29.0479197 245.968793,32.3733098 L245.968793,35.6986999 L256.895075,35.6986999 L256.895075,49.0002602 L245.968793,49.0002602 L245.968793,82.2541612 L230.054426,82.2541612 Z M264.258438,82.2541612 L264.258438,9.57063489 L280.410333,9.57063489 L280.410333,82.2541612 L264.258438,82.2541612 Z M306.775926,83.6793283 C301.787841,83.6793283 297.749867,82.0166333 295.137061,78.9287711 C292.524254,75.603381 291.099087,70.8528237 291.099087,64.6770992 L291.099087,36.1737556 L307.488509,36.1737556 L307.488509,61.3517092 C307.488509,64.2020435 307.963565,66.1022664 308.913677,67.5274336 C309.863788,68.9526008 311.526483,69.4276565 313.664234,69.4276565 C315.801985,69.4276565 317.46468,68.7150729 318.652319,67.2899057 C319.839958,65.6272107 320.552542,63.4894599 320.552542,60.6391256 L320.552542,35.9362278 L336.704437,35.9362278 L336.704437,82.2541612 L320.79007,82.2541612 L320.315014,76.5534924 C319.127375,78.9287711 317.227152,80.5914661 314.851873,81.7791054 C312.714122,82.9667447 309.863788,83.6793283 306.775926,83.6793283 Z M343.830273,82.2541612 L360.694751,58.5013748 L344.780384,36.1737556 L362.832502,36.1737556 L370.433393,48.7627324 L377.796757,36.1737556 L395.136291,36.1737556 L379.221924,58.7389027 L396.086403,82.491689 L377.796757,82.491689 L369.245754,68.4775451 L361.169807,82.2541612 L343.830273,82.2541612 Z M424.589746,83.6793283 C420.551773,83.6793283 416.751327,82.7292169 413.425937,80.5914661 C410.100547,78.4537153 407.725268,75.8409088 405.825045,72.040463 C403.924822,68.4775451 402.974711,64.2020435 402.974711,59.6890141 C402.974711,55.1759847 403.924822,51.138011 405.825045,47.5750931 C407.962796,44.0121751 410.575602,41.1618408 413.900992,39.02409 C417.226382,36.8863392 421.026828,35.6986999 425.30233,35.6986999 C428.62772,35.6986999 431.715582,36.6488113 434.565916,38.3115064 C437.416251,39.9742014 439.791529,42.3494801 441.454225,45.4373423 L441.454225,9.57063489 L449.055116,9.57063489 L449.055116,82.2541612 L441.691752,82.2541612 L441.454225,74.1782138 C439.554002,77.266076 437.178723,79.6413547 434.328389,81.3040497 C431.715582,82.9667447 428.390192,83.6793283 424.589746,83.6793283 Z M426.489969,76.7910203 C429.577831,76.7910203 432.428166,76.0784367 434.565916,74.6532695 C436.941195,73.2281023 438.841418,71.3278794 440.029057,68.7150729 C441.454225,66.1022664 442.166808,63.2519321 442.166808,59.926542 C442.166808,56.6011519 441.454225,53.5132897 440.029057,51.138011 C438.60389,48.5252045 436.941195,46.6249816 434.565916,45.1998144 C432.190638,43.7746472 429.577831,43.0620637 426.489969,43.0620637 C423.402107,43.0620637 420.7893,43.7746472 418.414022,45.1998144 C416.038743,46.6249816 414.13852,48.5252045 412.950881,51.138011 C411.525714,53.7508175 411.050658,56.6011519 411.050658,59.926542 C411.050658,63.2519321 411.763242,66.3397943 412.950881,68.7150729 C414.376048,71.3278794 416.276271,73.2281023 418.414022,74.6532695 C420.7893,76.0784367 423.402107,76.7910203 426.489969,76.7910203 Z M489.434853,83.6793283 C485.871935,83.6793283 482.784073,82.7292169 479.933738,81.0665218 C477.083404,79.4038268 474.945653,77.0285482 473.282958,73.9406859 L473.04543,82.0166333 L465.682067,82.0166333 L465.682067,9.57063489 L473.282958,9.57063489 L473.282958,45.4373423 C475.183181,42.3494801 477.55846,39.9742014 480.408794,38.3115064 C483.259129,36.6488113 486.584519,35.6986999 490.384964,35.6986999 C494.660466,35.6986999 498.223384,36.6488113 501.548774,38.7865621 C504.874164,40.9243129 507.249443,43.5371194 509.149666,47.3375652 C511.049889,50.9004832 512,54.9384568 512,59.6890141 C512,64.2020435 511.049889,68.2400172 508.912138,71.8029352 C507.011915,75.3658531 504.161581,78.2161875 500.83619,80.3539382 C497.273272,82.7292169 493.472827,83.6793283 489.434853,83.6793283 Z M488.247214,76.7910203 C491.335076,76.7910203 494.18541,76.0784367 496.323161,74.6532695 C498.69844,73.2281023 500.598663,71.3278794 501.786302,68.7150729 C503.211469,66.1022664 503.924053,63.2519321 503.924053,59.926542 C503.924053,56.6011519 503.211469,53.5132897 501.786302,51.138011 C500.361135,48.5252045 498.69844,46.6249816 496.323161,45.1998144 C493.947882,43.7746472 491.335076,43.0620637 488.247214,43.0620637 C485.159351,43.0620637 482.546545,43.7746472 480.171266,45.1998144 C477.795988,46.6249816 475.895765,48.5252045 474.708125,51.138011 C473.282958,53.7508175 472.807903,56.6011519 472.807903,59.926542 C472.807903,63.2519321 473.520486,66.3397943 474.708125,68.7150729 C476.133293,71.3278794 478.033516,73.2281023 480.171266,74.6532695 C482.546545,76.0784367 485.159351,76.7910203 488.247214,76.7910203 Z" fill="#020A47"/>
    <path d="M22.8431537,60.6861573 L23.0274597,60.7323645 L66.3363328,73.9880797 C66.6990644,74.0920422 67.0376929,74.2664954 67.3328444,74.5015251 C67.627905,74.7365549 67.8737585,75.0275225 68.0562158,75.357783 C68.2387641,75.6879525 68.354187,76.050957 68.3961176,76.4257859 C68.4296621,76.7257217 68.4155312,77.0286263 68.3547495,77.3232765 L68.3004321,77.5425411 L61.0430695,100.774469 C60.7877566,101.482105 60.289046,102.076956 59.6359834,102.450785 C59.0422901,102.790629 58.3562129,102.929017 57.6804612,102.847498 L57.4781482,102.816427 L14.1691842,89.4334646 C13.4457218,89.2131697 12.8385919,88.7160963 12.4798623,88.0502999 C12.1538271,87.4451131 12.0571358,86.7451369 12.2031141,86.0779553 L12.2542009,85.8789122 L19.4625384,62.696191 C19.6769212,61.9645426 20.1721755,61.3473166 20.8400638,60.9794005 C21.4522949,60.642144 22.1640353,60.5394454 22.8431537,60.6861573 Z M95.9555611,71.2940906 L95.8573993,71.3959306 L66.9352766,98.1722242 C65.8708298,99.2364069 65.3214805,98.8848595 65.6609043,97.4992536 L65.6978231,97.3572603 L71.7277373,77.9550256 C71.9984217,77.1528865 72.466935,76.4318799 73.0899822,75.8586765 C73.6438828,75.3491624 74.3039298,74.9710198 75.0210627,74.7506318 L75.2925676,74.6754326 L95.1697735,70.1586589 C96.5784513,69.6524047 96.9079173,70.2162489 96.0457537,71.1948701 L95.9555611,71.2940906 Z M1.3295347,41.0877323 L1.4218755,41.1925137 L15.2689307,56.137096 C15.8124825,56.7931601 16.1942239,57.5676487 16.3835939,58.398166 C16.5518419,59.1364845 16.5639244,59.9007467 16.4202247,60.6420836 L16.3590358,60.9189148 L10.3292126,80.3213315 C9.95896489,81.773571 9.28588667,81.821979 8.99301533,80.4665554 L8.96410256,80.3213315 L0.184472892,41.8798666 C-0.243199186,40.4260116 0.414404345,40.0848082 1.3295347,41.0877323 Z M89.628019,16.3636746 C90.2169881,16.7163556 90.6556994,17.2698899 90.865757,17.9189783 L90.9173174,18.0982925 L101.06189,62.0973381 C101.169218,62.4567954 101.200142,62.8344438 101.152845,63.206453 C101.105548,63.5784622 100.981849,63.9366461 100.789022,64.2580839 C100.596196,64.5795216 100.337882,64.8572097 100.031361,65.0735935 C99.7861437,65.2466278 99.5147317,65.377284 99.2278353,65.4607188 L99.009927,65.5143653 L75.1552244,70.983628 C74.4285786,71.1649029 73.6597293,71.0507534 73.0172176,70.6660104 C72.4282485,70.3133293 71.9895371,69.7597951 71.7794096,69.1107066 L71.7278283,68.9313924 L61.6126347,24.9323468 C61.430814,24.2097031 61.5426897,23.4445829 61.9236125,22.8042542 C62.2727918,22.2172861 62.8221364,21.7789708 63.4672581,21.567354 L63.6454966,21.5153197 L87.4899212,16.0460569 C88.216567,15.864782 88.9855073,15.9789316 89.628019,16.3636746 Z M58.534214,26.6513577 L58.5781675,26.7979411 L68.1729121,68.3324486 C68.5625843,69.8433416 67.6830399,70.6553137 66.2551687,70.3323688 L66.1105805,70.2962751 L25.2667003,57.7279128 C23.8159241,57.3297397 23.5095737,56.1717533 24.4801924,55.1114317 L24.5890797,54.9982385 L55.8382153,25.973154 C56.8919836,24.9195615 58.0834408,25.2698006 58.534214,26.6513577 Z M36.0651538,0.000847317163 C36.437072,0.00998212556 36.803351,0.09287314 37.142889,0.244710191 C37.4145194,0.366179104 37.6647278,0.529837533 37.8843402,0.729213269 L38.0431694,0.885340937 L54.6006708,18.8149332 C55.1010186,19.3551196 55.3673371,20.0712145 55.3415967,20.8070469 C55.3179178,21.4814765 55.0506626,22.1223542 54.5927955,22.6126111 L54.4632366,22.7424952 L21.2990268,53.4957398 C20.7516548,54.0013631 20.0268281,54.2705013 19.2820821,54.2447608 C18.5993982,54.2211653 17.9504956,53.9515477 17.4533538,53.4891529 L17.321621,53.3583056 L0.734625365,35.4189129 C0.239130956,34.8763616 -0.0239822286,34.1612672 0.0017205411,33.427072 C0.0252814467,32.7539764 0.289808195,32.1139742 0.743676301,31.6217522 L0.87211414,31.4912599 L34.0461172,0.787150522 C34.313891,0.52894613 34.6301443,0.326477628 34.9767768,0.191497415 C35.3234093,0.0565164729 35.6933265,-0.00828751852 36.0651538,0.000847317163 Z M44.4560962,0.7514541 L44.5933508,0.787306056 L82.4224102,12.3639846 C83.8844094,12.7531359 83.9331427,13.4084007 82.6129766,13.8241662 L82.4715264,13.8663014 L62.5945934,18.3731609 C61.7616203,18.5439758 60.8998141,18.512778 60.0813939,18.2821141 C59.3539093,18.0771604 58.679462,17.719922 58.1023217,17.2353125 L57.8905418,17.0476621 L44.043432,2.15215046 C42.8542533,0.96313031 43.0751344,0.409935405 44.4560962,0.7514541 Z" fill="#020A47"/>
  </g>
</svg>

<svg width="512" height="103" xmlns="http://www.w3.org/2000/svg" preserveAspectRatio="xMidYMid"><g fill="#020A47"><path d="M150.245 28.81c-2.613 0-4.75-.95-6.65-2.612-1.663-1.663-2.614-3.8-2.614-6.176 0-2.613.95-4.513 2.613-6.176 1.9-1.663 4.038-2.613 6.651-2.613 2.613 0 4.75.95 6.413 2.613 1.663 1.663 2.613 3.563 2.613 6.176 0 2.375-.95 4.513-2.613 6.176-1.9 1.662-4.038 2.612-6.413 2.612Zm-8.313 53.444V35.936h16.151v46.318h-16.151Zm27.315 0V35.936h15.915l.237 5.7c1.188-2.374 2.85-4.037 5.226-5.225 2.375-1.187 4.988-1.9 8.076-1.9 5.225 0 9.263 1.663 11.876 4.988 2.85 3.326 4.038 8.076 4.038 14.49v28.265h-16.152V57.076c0-5.463-2.138-8.076-6.176-8.076-2.137 0-3.8.713-5.225 2.376-1.188 1.425-1.663 3.562-1.663 6.413v24.465h-16.152Zm60.807 0V49h-7.363V35.936h7.363v-4.513c0-7.126 1.663-12.589 5.226-16.39 3.563-3.8 8.551-5.937 14.964-5.937 1.9 0 3.563.237 5.226.475 1.663.237 3.088.712 4.275 1.187l-1.187 13.302c-.713-.238-1.425-.475-2.376-.713-.95-.237-1.662-.237-2.612-.237-2.613 0-4.513.712-5.701 2.137-1.188 1.426-1.9 3.8-1.9 7.126V35.7h10.926V49H245.97v33.254h-15.915Zm34.204 0V9.571h16.152v72.683h-16.152Zm42.518 1.425c-4.988 0-9.026-1.662-11.639-4.75-2.613-3.326-4.038-8.076-4.038-14.252V36.174h16.39v25.178c0 2.85.475 4.75 1.425 6.175.95 1.426 2.612 1.9 4.75 1.9s3.8-.712 4.988-2.137c1.188-1.663 1.9-3.8 1.9-6.65V35.935h16.152v46.318H320.79l-.475-5.7c-1.188 2.375-3.088 4.037-5.463 5.225-2.138 1.188-4.988 1.9-8.076 1.9Zm37.054-1.425 16.865-23.753-15.915-22.327h18.053l7.6 12.589 7.364-12.59h17.34L379.221 58.74l16.864 23.753h-18.29l-8.55-14.014-8.076 13.776h-17.34Zm80.76 1.425c-4.038 0-7.839-.95-11.164-3.088-3.325-2.137-5.7-4.75-7.601-8.55-1.9-3.563-2.85-7.839-2.85-12.352s.95-8.551 2.85-12.114c2.138-3.563 4.75-6.413 8.076-8.55 3.325-2.139 7.126-3.326 11.401-3.326 3.326 0 6.414.95 9.264 2.613a18.094 18.094 0 0 1 6.888 7.125V9.571h7.601v72.683h-7.363l-.238-8.076c-1.9 3.088-4.275 5.463-7.126 7.126-2.612 1.663-5.938 2.375-9.738 2.375Zm1.9-6.888c3.088 0 5.938-.713 8.076-2.138 2.375-1.425 4.275-3.325 5.463-5.938 1.425-2.613 2.138-5.463 2.138-8.788 0-3.326-.713-6.414-2.138-8.789-1.425-2.613-3.088-4.513-5.463-5.938-2.375-1.425-4.988-2.138-8.076-2.138s-5.7.713-8.076 2.138c-2.375 1.425-4.275 3.325-5.463 5.938-1.425 2.613-1.9 5.463-1.9 8.789 0 3.325.712 6.413 1.9 8.788 1.425 2.613 3.325 4.513 5.463 5.938 2.375 1.425 4.988 2.138 8.076 2.138Zm62.945 6.888c-3.563 0-6.65-.95-9.501-2.612-2.85-1.663-4.988-4.038-6.651-7.126l-.238 8.076h-7.363V9.57h7.601v35.866c1.9-3.088 4.275-5.463 7.126-7.125 2.85-1.663 6.176-2.613 9.976-2.613 4.275 0 7.838.95 11.164 3.088 3.325 2.137 5.7 4.75 7.6 8.55C511.05 50.9 512 54.939 512 59.69c0 4.513-.95 8.551-3.088 12.114-1.9 3.563-4.75 6.413-8.076 8.55-3.563 2.376-7.363 3.326-11.401 3.326Zm-1.188-6.888c3.088 0 5.938-.713 8.076-2.138 2.375-1.425 4.276-3.325 5.463-5.938 1.425-2.613 2.138-5.463 2.138-8.788 0-3.326-.713-6.414-2.138-8.789-1.425-2.613-3.088-4.513-5.463-5.938-2.375-1.425-4.988-2.138-8.076-2.138s-5.7.713-8.076 2.138c-2.375 1.425-4.275 3.325-5.463 5.938-1.425 2.613-1.9 5.463-1.9 8.789 0 3.325.712 6.413 1.9 8.788 1.425 2.613 3.326 4.513 5.463 5.938 2.376 1.425 4.988 2.138 8.076 2.138ZM22.843 60.686l.184.046 43.31 13.256a2.868 2.868 0 0 1 2.018 3.335l-.055.22-7.257 23.231a3.172 3.172 0 0 1-3.363 2.073l-.202-.03L14.17 89.432a2.868 2.868 0 0 1-1.966-3.355l.051-.2 7.209-23.182a2.887 2.887 0 0 1 3.38-2.01Zm73.113 10.608-.099.102-28.922 26.776c-1.064 1.064-1.614.713-1.274-.673l.037-.142 6.03-19.402a5.037 5.037 0 0 1 3.293-3.204l.272-.076L95.17 70.16c1.408-.507 1.738.057.876 1.036l-.09.1ZM1.33 41.088l.092.105 13.847 14.944a5.44 5.44 0 0 1 1.151 4.505l-.061.277-6.03 19.402c-.37 1.453-1.043 1.501-1.336.146l-.029-.146L.184 41.88c-.427-1.454.23-1.795 1.146-.792Zm88.298-24.724a2.828 2.828 0 0 1 1.238 1.555l.051.18 10.145 43.998a2.69 2.69 0 0 1-.273 2.161 2.697 2.697 0 0 1-1.561 1.203l-.218.053-23.855 5.47a2.829 2.829 0 0 1-3.376-1.873l-.051-.18-10.115-43.999a2.818 2.818 0 0 1 1.854-3.365l.178-.052 23.845-5.469a2.829 2.829 0 0 1 2.138.318ZM58.534 26.65l.044.147 9.595 41.534c.39 1.511-.49 2.323-1.918 2l-.144-.036-40.844-12.568c-1.451-.398-1.757-1.556-.787-2.617l.11-.113 31.248-29.025c1.054-1.053 2.245-.703 2.696.678ZM36.065.001a2.809 2.809 0 0 1 1.82.728l.158.156 16.558 17.93a2.788 2.788 0 0 1-.008 3.798l-.13.13L21.3 53.495a2.828 2.828 0 0 1-3.846-.007l-.131-.13L.735 35.418a2.808 2.808 0 0 1 .009-3.797l.128-.13L34.046.786a2.81 2.81 0 0 1 2.02-.786Zm8.391.75.137.036 37.83 11.577c1.461.39 1.51 1.044.19 1.46l-.141.042-19.877 4.507a5.323 5.323 0 0 1-4.493-1.138l-.211-.187L44.043 2.152c-1.189-1.189-.968-1.742.413-1.4Z"/></g></svg>
